; HEADER_BLOCK_START
; generated by OrcaSlicer 2.3.2-dev on 2025-11-16 at 15:22:33
; total layer number: 20
; filament_density: 1.24
; filament_diameter: 1.75
; max_z_height: 4.00
; filament: 1
; HEADER_BLOCK_END

; THUMBNAIL_BLOCK_START

;
; THUMBNAIL_BLOCK_END

; THUMBNAIL_BLOCK_START

;
; THUMBNAIL_BLOCK_END

; external perimeters extrusion width = 0.42mm
; perimeters extrusion width = 0.45mm
; infill extrusion width = 0.45mm
; solid infill extrusion width = 0.45mm
; top infill extrusion width = 0.42mm
; first layer extrusion width = 0.50mm

; EXECUTABLE_BLOCK_START
EXCLUDE_OBJECT_DEFINE NAME=basicbridge-walledv6.stl_id_0_copy_0 CENTER=110,110 POLYGON=[[84,122.5],[84,97.5],[136,97.5],[136,122.5],[84,122.5]]
M73 P0 R7
;TYPE:Custom
SET_GCODE_VARIABLE MACRO=PRINTER_PARAM VARIABLE=fan0_min VALUE=30 ;compensate for fan speed
SET_VELOCITY_LIMIT ACCEL_TO_DECEL=2500 ;revert accel_to_decel back to 2500
M220 S100 ;Reset Feedrate
M221 S100 ;Reset Flowrate

M140 S60 ;Set bed temp
G28 X Y ;Home XY axes
M190 S60 ;Wait for bed temp to stabilize
G28 Z ;Home Z axis & load bed mesh
;BED_MESH_CALIBRATE PROBE_COUNT=6,6 ;Auto bed level

M104 S220 ;Set nozzle temp
G92 E0 ;Reset Extruder
G1 X-2.0 Y140.0 z0.3 F5000.0 ;Move to start position
M109 S220 ;Wait for nozzle temp to stabilize
G1 Z0.2 ;Lower nozzle to printing height
G1 Y0.0 F1500.0 E15 ;Draw the first line
G1 X30.0 F1500.0 E15 ;Draw the second line
M73 P1 R7
G92 E0 ;Reset Extruder
G90
G21
M83 ; use relative distances for extrusion
; filament start gcode
SET_PRESSURE_ADVANCE ADVANCE=0.032; Override pressure advance value
M106 S0
;LAYER_CHANGE
;Z:0.2
;HEIGHT:0.2
;BEFORE_LAYER_CHANGE
;0.2
G92 E0

G1 E-.8 F2400
;_SET_FAN_SPEED_CHANGING_LAYER
SET_VELOCITY_LIMIT ACCEL=1000 ACCEL_TO_DECEL=500
SET_VELOCITY_LIMIT SQUARE_CORNER_VELOCITY=5
G1 X84.119 Y91.764 F24000
G1 Z.16
G1 Z.16
G1 E.8 F2400
;TYPE:Skirt
;WIDTH:0.5
G1 F6000
G1 X136.05 Y91.764 E1.93424
G1 X138.136 Y92.161 E.07909
M73 P2 R7
G1 X139.931 Y93.295 E.07909
G1 X141.185 Y95.009 E.07909
G1 X141.736 Y97.45 E.09322
G1 X141.736 Y122.55 E.93488
G1 X141.339 Y124.636 E.07909
G1 X140.205 Y126.431 E.07909
G1 X138.491 Y127.685 E.07909
G1 X136.05 Y128.236 E.09322
G1 X83.95 Y128.236 E1.94053
G1 X81.864 Y127.839 E.07909
G1 X80.069 Y126.705 E.07909
G1 X78.815 Y124.991 E.07909
G1 X78.264 Y122.55 E.09322
G1 X78.264 Y97.45 E.93488
G1 X78.661 Y95.364 E.07909
G1 X79.795 Y93.569 E.07909
G1 X81.509 Y92.315 E.07909
G1 X83.95 Y91.764 E.09322
G1 X84.079 Y91.764 E.00479
G1 X84.079 Y92.221 F24000
G1 F6000
G1 X136.05 Y92.221 E1.93573
G1 X138.046 Y92.618 E.07581
G1 X139.74 Y93.746 E.07581
G1 X140.875 Y95.436 E.07581
G1 X141.279 Y97.45 E.07651
G1 X141.279 Y122.55 E.93488
G1 X140.882 Y124.546 E.07581
G1 X139.754 Y126.24 E.07581
G1 X138.064 Y127.375 E.07581
G1 X136.05 Y127.779 E.07651
G1 X83.95 Y127.779 E1.94053
G1 X81.954 Y127.382 E.07581
M73 P3 R7
G1 X80.26 Y126.254 E.07581
G1 X79.125 Y124.564 E.07581
G1 X78.721 Y122.55 E.07651
G1 X78.721 Y97.45 E.93488
G1 X79.118 Y95.454 E.07581
G1 X80.246 Y93.76 E.07581
G1 X81.936 Y92.625 E.07581
G1 X83.95 Y92.221 E.07651
G1 X84.039 Y92.221 E.0033
; printing object basicbridge-walledv6.stl id:0 copy 0
G1 E-.8 F2400
;WIPE_START
G1 F6000
G1 X86.039 Y92.221
;WIPE_END
EXCLUDE_OBJECT_START NAME=basicbridge-walledv6.stl_id_0_copy_0
G1 X89.721 Y121.779 F24000
G1 X130.279 Y121.779
G1 X134.814 Y121.315
G1 E.8 F2400
;TYPE:Inner wall
;WIDTH:0.499999
G1 F3000
G1 X131.264 Y121.316 E.13222
G1 X131.284 Y120.568 E.02787
G1 X131.285 Y100.449 E.74934
G1 X131.262 Y98.684 E.06574
G1 X134.814 Y98.685 E.13231
G1 X134.814 Y121.275 E.84137
G1 E-.8 F2400
;WIPE_START
G1 F3000
G1 X132.815 Y121.298
;WIPE_END
G1 X130.674 Y121.78 F24000
G1 E.8 F2400
G1 F3000
G1 X130.799 Y121.633 E.0072
G1 X130.827 Y120.568 E.03969
G1 X130.828 Y99.911 E.76938
G1 X130.799 Y98.373 E.05731
G1 X130.643 Y98.215 E.00825
G1 X135.271 Y98.228 E.17239
G1 X135.271 Y121.772 E.8769
G1 X130.714 Y121.78 E.16976
G1 E-.8 F2400
;WIPE_START
G1 F3000
G1 X130.799 Y121.633
G1 X130.827 Y120.568
G1 X130.827 Y119.803
;WIPE_END
G1 X130.736 Y119.803 F24000
M73 P4 R7
G1 X130.736 Y120.709
G1 X130.379 Y121.879
G1 X89.621 Y121.879
G1 X89.445 Y121.207
G1 X89.398 Y121.077
G1 X88.738 Y121.316
G1 E.8 F2400
G1 F3000
G1 X85.186 Y121.315 E.13231
G1 X85.186 Y98.685 E.84286
G1 X88.736 Y98.684 E.13222
G1 X88.716 Y99.432 E.02787
G1 X88.715 Y119.551 E.74934
G1 X88.737 Y121.276 E.06425
G1 X89.355 Y121.781 F24000
G1 F3000
G1 X84.729 Y121.772 E.1723
G1 X84.729 Y98.228 E.8769
G1 X89.326 Y98.22 E.17125
G1 X89.201 Y98.367 E.0072
G1 X89.173 Y99.432 E.03969
G1 X89.172 Y120.089 E.76938
G1 X89.201 Y121.627 E.05731
G1 X89.326 Y121.753 E.0066
G1 E-.8 F2400
;WIPE_START
G1 F3000
G1 X87.326 Y121.761
;WIPE_END
G1 X87.326 Y121.864 F24000
G1 X88.286 Y121.864
G1 X90.283 Y122.221
G1 X130.216 Y122.214
G1 X130.425 Y122.175
G1 X130.32 Y121.62
G1 E.8 F2400
;TYPE:Outer wall
G1 F3000
G1 X130.113 Y121.808 E.01043
;WIDTH:0.478538
G1 X89.886 Y121.808 E1.42795
;WIDTH:0.499999
G1 X89.679 Y121.618 E.01047
M73 P5 R7
G1 X89.65 Y120.08 E.05731
G1 X89.652 Y99.432 E.76904
G1 X89.68 Y98.38 E.03921
G1 X89.887 Y98.192 E.01043
;WIDTH:0.478538
G1 X130.089 Y98.189 E1.42708
;WIDTH:0.499999
G1 X130.321 Y98.382 E.0112
G1 X130.35 Y99.92 E.05731
G1 X130.348 Y120.568 E.76904
G1 X130.321 Y121.58 E.03772
G1 E-.8 F2400
;WIPE_START
G1 F3000
G1 X130.113 Y121.808
G1 X128.422 Y121.808
;WIPE_END
G1 X128.422 Y122.221 F24000
G1 X131.714 Y121.864
G1 X135.364 Y121.864
G1 X135.75 Y122.25
G1 E.8 F2400
G1 F3000
G1 X130.949 Y122.254 E.17883
G1 X130.125 Y122.282 E.03069
;WIDTH:0.478539
G1 X89.874 Y122.282 E1.42881
;WIDTH:0.499999
G1 X88.912 Y122.252 E.03585
G1 X84.25 Y122.25 E.17365
G1 X84.25 Y97.75 E.91254
G1 X89.051 Y97.746 E.17883
G1 X89.882 Y97.718 E.03098
;WIDTH:0.478538
G1 X130.109 Y97.711 E1.42795
;WIDTH:0.499999
G1 X131.087 Y97.748 E.03645
M73 P6 R7
G1 X135.75 Y97.75 E.17366
G1 X135.75 Y122.21 E.91105
G1 E-.8 F2400
;WIPE_START
G1 F3000
G1 X133.75 Y122.228
;WIPE_END
G1 X133.733 Y98.822 F24000
G1 E.8 F2400
;TYPE:Bottom surface
;WIDTH:0.509253
G1 F6300
G1 X134.472 Y99.56 E.03967
G1 X134.472 Y100.22 E.02506
G1 X133.279 Y99.028 E.06407
G1 X132.62 Y99.027 E.02507
G1 X134.472 Y100.879 E.09952
G1 X134.472 Y101.539 E.02506
G1 X131.96 Y99.027 E.13497
G1 X131.612 Y99.027 E.01324
G1 X131.617 Y99.344 E.01205
G1 X134.472 Y102.198 E.15338
G1 X134.472 Y102.858 E.02506
G1 X131.628 Y100.014 E.1528
G1 X131.628 Y100.674 E.02506
G1 X134.472 Y103.517 E.1528
G1 X134.472 Y104.177 E.02506
G1 X131.628 Y101.333 E.1528
G1 X131.628 Y101.993 E.02506
G1 X134.472 Y104.836 E.15281
G1 X134.472 Y105.496 E.02506
G1 X131.628 Y102.652 E.15281
G1 X131.628 Y103.312 E.02506
G1 X134.472 Y106.155 E.15281
G1 X134.472 Y106.815 E.02506
G1 X131.628 Y103.971 E.15281
G1 X131.628 Y104.631 E.02506
G1 X134.472 Y107.474 E.15282
G1 X134.472 Y108.134 E.02506
G1 X131.628 Y105.29 E.15282
G1 X131.628 Y105.949 E.02506
G1 X134.472 Y108.793 E.15282
G1 X134.472 Y109.453 E.02506
G1 X131.628 Y106.609 E.15282
G1 X131.628 Y107.268 E.02506
G1 X134.472 Y110.112 E.15283
G1 X134.472 Y110.772 E.02506
G1 X131.628 Y107.928 E.15283
G1 X131.628 Y108.587 E.02506
G1 X134.472 Y111.431 E.15283
G1 X134.472 Y112.091 E.02506
G1 X131.628 Y109.247 E.15283
G1 X131.628 Y109.906 E.02506
G1 X134.472 Y112.75 E.15284
G1 X134.472 Y113.41 E.02506
G1 X131.628 Y110.566 E.15284
G1 X131.628 Y111.225 E.02506
G1 X134.472 Y114.069 E.15284
G1 X134.472 Y114.729 E.02506
G1 X131.627 Y111.885 E.15284
G1 X131.627 Y112.544 E.02506
M73 P7 R7
G1 X134.472 Y115.388 E.15285
G1 X134.472 Y116.048 E.02506
G1 X131.627 Y113.203 E.15285
G1 X131.627 Y113.863 E.02506
G1 X134.472 Y116.707 E.15285
G1 X134.472 Y117.367 E.02506
G1 X131.627 Y114.522 E.15285
G1 X131.627 Y115.182 E.02506
G1 X134.472 Y118.026 E.15286
G1 X134.472 Y118.686 E.02506
G1 X131.627 Y115.841 E.15286
G1 X131.627 Y116.501 E.02506
G1 X134.472 Y119.345 E.15286
G1 X134.472 Y120.005 E.02506
G1 X131.627 Y117.16 E.15286
G1 X131.627 Y117.82 E.02506
G1 X134.472 Y120.664 E.15287
G1 X134.472 Y120.972 E.0117
G1 X134.12 Y120.972 E.01335
G1 X131.627 Y118.479 E.13398
G1 X131.627 Y119.138 E.02506
G1 X133.461 Y120.972 E.09856
G1 X132.802 Y120.973 E.02505
G1 X131.627 Y119.798 E.06313
G1 X131.627 Y120.457 E.02506
G1 X132.348 Y121.178 E.03875
G1 E-.8 F2400
;WIPE_START
G1 F6300
G1 X131.627 Y120.457
G1 X131.627 Y119.798
G1 X131.854 Y120.025
;WIPE_END
G1 X130.736 Y99.291 F24000
G1 X130.379 Y98.121
G1 X89.621 Y98.121
G1 X89.264 Y99.291
G1 X89.264 Y99.595
G1 X87.652 Y98.136
G1 X87.652 Y98.822
G1 E.8 F2400
;WIDTH:0.509255
G1 F6300
G1 X88.374 Y99.543 E.03878
G1 X88.374 Y100.203 E.02506
G1 X87.198 Y99.027 E.06315
G1 X86.539 Y99.028 E.02505
G1 X88.373 Y100.862 E.09858
G1 X88.373 Y101.521 E.02506
G1 X85.88 Y99.028 E.13401
G1 X85.528 Y99.028 E.01335
G1 X85.528 Y99.336 E.0117
G1 X88.373 Y102.181 E.15289
G1 X88.373 Y102.84 E.02506
G1 X85.528 Y99.995 E.15289
G1 X85.528 Y100.655 E.02506
G1 X88.373 Y103.5 E.15288
G1 X88.373 Y104.159 E.02506
G1 X85.528 Y101.314 E.15288
G1 X85.528 Y101.974 E.02506
G1 X88.373 Y104.819 E.15288
G1 X88.373 Y105.478 E.02506
G1 X85.528 Y102.633 E.15287
G1 X85.528 Y103.293 E.02506
G1 X88.373 Y106.137 E.15287
G1 X88.373 Y106.797 E.02506
G1 X85.528 Y103.952 E.15287
G1 X85.528 Y104.612 E.02506
M73 P8 R7
G1 X88.373 Y107.456 E.15286
G1 X88.373 Y108.116 E.02506
G1 X85.528 Y105.271 E.15286
G1 X85.528 Y105.931 E.02506
G1 X88.373 Y108.775 E.15286
G1 X88.373 Y109.435 E.02506
G1 X85.528 Y106.59 E.15285
G1 X85.528 Y107.25 E.02506
G1 X88.373 Y110.094 E.15285
G1 X88.373 Y110.754 E.02506
G1 X85.528 Y107.909 E.15285
G1 X85.528 Y108.569 E.02506
G1 X88.372 Y111.413 E.15284
G1 X88.372 Y112.072 E.02506
G1 X85.528 Y109.228 E.15284
G1 X85.528 Y109.888 E.02506
G1 X88.372 Y112.732 E.15284
G1 X88.372 Y113.391 E.02506
G1 X85.528 Y110.547 E.15283
G1 X85.528 Y111.207 E.02506
G1 X88.372 Y114.051 E.15283
G1 X88.372 Y114.71 E.02506
G1 X85.528 Y111.866 E.15283
G1 X85.528 Y112.526 E.02506
G1 X88.372 Y115.37 E.15282
G1 X88.372 Y116.029 E.02506
G1 X85.528 Y113.185 E.15282
G1 X85.528 Y113.845 E.02506
G1 X88.372 Y116.688 E.15282
G1 X88.372 Y117.348 E.02506
G1 X85.528 Y114.504 E.15281
G1 X85.528 Y115.164 E.02506
G1 X88.372 Y118.007 E.15281
G1 X88.372 Y118.667 E.02506
G1 X85.528 Y115.823 E.15281
G1 X85.528 Y116.483 E.02506
G1 X88.372 Y119.326 E.1528
G1 X88.372 Y119.986 E.02506
G1 X85.528 Y117.142 E.1528
G1 X85.528 Y117.802 E.02506
G1 X88.383 Y120.656 E.15338
G1 X88.388 Y120.973 E.01205
G1 X88.04 Y120.973 E.01325
G1 X85.528 Y118.461 E.13497
G1 X85.528 Y119.121 E.02506
G1 X87.38 Y120.973 E.09952
G1 X86.72 Y120.972 E.02507
G1 X85.528 Y119.78 E.06406
G1 X85.528 Y120.44 E.02506
G1 X86.267 Y121.178 E.03967
; stop printing object basicbridge-walledv6.stl id:0 copy 0
M106 S127
;LAYER_CHANGE
;Z:0.4
;HEIGHT:0.2
;BEFORE_LAYER_CHANGE
;0.4
G92 E0

G1 E-.8 F2400
;WIPE_START
G1 F6300
G1 X85.528 Y120.44
G1 X85.528 Y119.78
G1 X85.738 Y119.99
;WIPE_END
EXCLUDE_OBJECT_END NAME=basicbridge-walledv6.stl_id_0_copy_0
;_SET_FAN_SPEED_CHANGING_LAYER
SET_VELOCITY_LIMIT ACCEL=5000 ACCEL_TO_DECEL=2500
M140 S50 ; set bed temperature
; printing object basicbridge-walledv6.stl id:0 copy 0
EXCLUDE_OBJECT_START NAME=basicbridge-walledv6.stl_id_0_copy_0
G1 X89.603 Y121.897 Z.36 F24000
G1 X130.397 Y121.897
G1 X130.524 Y121.38
G1 X135.439 Y121.519
G1 X135.019 Y121.519
G1 E.8 F2400
;TYPE:Inner wall
;WIDTH:0.449999
G1 F16543.946
G1 X131.081 Y121.519 E.13066
G1 X131.081 Y98.481 E.76424
G1 X135.019 Y98.481 E.13066
G1 X135.019 Y121.479 E.76291
G1 E-.8 F2400
;WIPE_START
G1 F16543.946
M73 P9 R7
G1 X133.019 Y121.5
;WIPE_END
G1 X130.502 Y121.797 F24000
G1 E.8 F2400
G1 F16543.946
G1 X130.674 Y121.593 E.00882
G1 X130.674 Y98.407 E.76912
G1 X130.34 Y98.074 E.01565
G1 X135.426 Y98.074 E.16873
G1 X135.426 Y121.926 E.79124
G1 X130.393 Y121.926 E.16696
G1 X130.477 Y121.827 E.0043
G1 E-.8 F2400
;WIPE_START
G1 F16543.946
G1 X130.674 Y121.593
G1 X130.674 Y119.899
;WIPE_END
G1 X130.661 Y119.899 F24000
G1 X130.661 Y120.745
G1 X130.557 Y121.245
G1 X130.397 Y121.897
G1 X89.603 Y121.897
G1 X89.476 Y121.383
G1 X88.919 Y121.519
G1 E.8 F2400
G1 F16543.946
G1 X84.981 Y121.519 E.13066
G1 X84.981 Y98.481 E.76424
G1 X88.919 Y98.481 E.13066
G1 X88.919 Y121.479 E.76291
G1 X89.66 Y121.926 F24000
G1 F16543.946
G1 X84.574 Y121.926 E.16873
G1 X84.574 Y98.074 E.79124
G1 X89.607 Y98.074 E.16696
G1 X89.326 Y98.407 E.01445
G1 X89.326 Y121.593 E.76912
G1 X89.632 Y121.898 E.01432
G1 E-.8 F2400
;WIPE_START
G1 F16543.946
G1 X87.632 Y121.909
;WIPE_END
G1 X87.632 Y121.939 F24000
G1 X88.754 Y121.939
G1 X130.246 Y122.193
G1 X130.374 Y122.167
G1 X130.26 Y121.593
G1 E.8 F2400
SET_VELOCITY_LIMIT ACCEL=4000 ACCEL_TO_DECEL=2000
;TYPE:Outer wall
;WIDTH:0.459999
G1 F12000
G1 X130.194 Y121.696 E.00417
;WIDTH:0.499999
G1 X130.128 Y121.8 E.00457
G1 X89.907 Y121.8 E1.49808
G1 X89.824 Y121.696 E.00496
;WIDTH:0.459999
G1 X89.74 Y121.593 E.00452
;WIDTH:0.419999
G1 X89.74 Y98.407 E.71244
;WIDTH:0.459999
G1 X89.806 Y98.304 E.00417
;WIDTH:0.499999
G1 X89.872 Y98.2 E.00457
G1 X130.093 Y98.2 E1.49808
G1 X130.176 Y98.304 E.00496
;WIDTH:0.459999
G1 X130.26 Y98.407 E.00452
;WIDTH:0.419999
G1 X130.26 Y121.553 E.71121
SET_VELOCITY_LIMIT ACCEL=5000 ACCEL_TO_DECEL=2500
G1 E-.8 F2400
;WIPE_START
G1 F12000
G1 X130.194 Y121.696
G1 X130.128 Y121.8
G1 X128.409 Y121.8
;WIPE_END
G1 X128.409 Y122.203 F24000
G1 X131.246 Y121.939
G1 X135.439 Y121.939
G1 X135.84 Y122.34
G1 E.8 F2400
SET_VELOCITY_LIMIT ACCEL=4000 ACCEL_TO_DECEL=2000
G1 F12000
G1 X131.007 Y122.34 E.1485
;WIDTH:0.459999
G1 X130.55 Y122.32 E.01555
;WIDTH:0.499999
G1 X130.093 Y122.3 E.01704
G1 X89.907 Y122.3 E1.49677
G1 X89.45 Y122.32 E.01704
;WIDTH:0.459999
G1 X88.993 Y122.34 E.01555
;WIDTH:0.419999
G1 X84.16 Y122.34 E.1485
G1 X84.16 Y97.66 E.75835
G1 X88.993 Y97.66 E.1485
;WIDTH:0.459999
G1 X89.45 Y97.68 E.01555
;WIDTH:0.499999
G1 X89.907 Y97.7 E.01704
G1 X130.093 Y97.7 E1.49677
G1 X130.55 Y97.68 E.01704
;WIDTH:0.459999
G1 X131.007 Y97.66 E.01555
;WIDTH:0.419999
G1 X135.84 Y97.66 E.1485
G1 X135.84 Y122.3 E.75712
G1 E-.8 F2400
;WIPE_START
G1 F12000
G1 X133.84 Y122.317
;WIPE_END
SET_VELOCITY_LIMIT ACCEL=5000 ACCEL_TO_DECEL=2500
G1 X133.84 Y121.939 F24000
G1 X133.588 Y121.038
G1 E.8 F2400
;TYPE:Internal solid infill
;WIDTH:0.599366
G1 F12103.05
G1 X134.538 Y121.038 E.04307
G1 X134.538 Y120.088 E.04307
G1 X133.616 Y121.009 E.0591
G1 X134.897 Y119.103 F24000
;WIDTH:0.451985
G1 F16463.626
G1 X132.786 Y121.214 E.09953
G1 X132.208 Y121.214 E.01928
G1 X134.714 Y118.708 E.11816
G1 X134.714 Y118.129 E.01928
G1 X131.629 Y121.214 E.14543
G1 X131.386 Y121.214 E.0081
G1 X131.386 Y120.879 E.01118
G1 X134.714 Y117.551 E.15689
G1 X134.714 Y116.972 E.01928
G1 X131.386 Y120.3 E.15689
G1 X131.386 Y119.722 E.01928
M73 P10 R7
G1 X134.714 Y116.394 E.15689
G1 X134.714 Y115.815 E.01928
G1 X131.386 Y119.143 E.15689
G1 X131.386 Y118.565 E.01928
G1 X134.714 Y115.237 E.15689
G1 X134.714 Y114.658 E.01928
G1 X131.386 Y117.986 E.15689
G1 X131.386 Y117.408 E.01928
G1 X134.714 Y114.079 E.15689
G1 X134.714 Y113.501 E.01928
G1 X131.386 Y116.829 E.15689
G1 X131.386 Y116.251 E.01928
G1 X134.714 Y112.922 E.15689
G1 X134.714 Y112.344 E.01928
G1 X131.386 Y115.672 E.15689
G1 X131.386 Y115.094 E.01928
G1 X134.714 Y111.765 E.15689
G1 X134.714 Y111.187 E.01928
G1 X131.386 Y114.515 E.15689
G1 X131.386 Y113.937 E.01928
G1 X134.714 Y110.608 E.15689
G1 X134.714 Y110.03 E.01928
G1 X131.386 Y113.358 E.15689
G1 X131.386 Y112.78 E.01928
G1 X134.714 Y109.451 E.15689
G1 X134.714 Y108.873 E.01928
G1 X131.386 Y112.201 E.15689
G1 X131.386 Y111.623 E.01928
G1 X134.714 Y108.294 E.15689
G1 X134.714 Y107.716 E.01928
G1 X131.386 Y111.044 E.15689
G1 X131.386 Y110.466 E.01928
G1 X134.714 Y107.137 E.15689
G1 X134.714 Y106.559 E.01928
G1 X131.386 Y109.887 E.15689
G1 X131.386 Y109.309 E.01928
G1 X134.714 Y105.98 E.15689
G1 X134.714 Y105.402 E.01928
G1 X131.386 Y108.73 E.15689
G1 X131.386 Y108.152 E.01928
G1 X134.714 Y104.823 E.15689
G1 X134.714 Y104.245 E.01928
G1 X131.386 Y107.573 E.15689
G1 X131.386 Y106.995 E.01928
G1 X134.714 Y103.666 E.15689
G1 X134.714 Y103.088 E.01928
G1 X131.386 Y106.416 E.15689
G1 X131.386 Y105.838 E.01928
G1 X134.714 Y102.509 E.15689
